X: 27
T:Saturday Night, Bledington
M:6/8
L:1/8
A:Bledington
P:A(AB)3A
K:F
P:A
|:A>GA/B/ c2C|DEF    E>DC|A>GA/B/ c2C|CDE F3:|
P:B
|:G>EC    C2C|CD/E/F E>DC|AGF     ABc|CDE F3:|

